X: 1
T: Peacock Follow The Hen
R: slip jig
M: 9/8
L: 1/8
K: Ador
cde cAA cAA | cde cAA B2G | cde cAA cAA | Bcd dgd B2G:||
cde gee gee | cde gee f2d | cde gee gee | Bcd dgd B2G:||


Tune 1145	Setting 14411

